X: 011
T: Go to the Devil and Shake yourself
%R: jig
Z: 2018 John Chambers <jc:trillian.mit.edu>
B: Bland and Weller "Country Dances for the Year 1798" p.1 #1
M: C|
L: 1/8
K: C
|:\
Gcc cBA | GAG GEG | Gcc c2d | ecA A2G |\
Gcc cBA | GAG GEG | cec dfd | ecc c3 :|
|:\
gec cBc | AFF F3  | afd dec | BGG G3 |\
Gcc cBA | GAG GEG | cec dfd | ecc c3 :|
% - - - - - - - - - - - - - - - - - - - - - - - - -
%%begintext align
%%  First Gent: set to the 2d Lady & turn .|
%% first Lady set to the 2d Gent: & turn .|. Lead down
%% the middle & up again :|. Hands 6 round.
%%endtext
% - - - - - - - - - - - - - - - - - - - - - - - - -
